X:41
T:Burnin' the Marsh
R:jig
C:Bruce Osborne  --  Apr.27 1991
Z:abc by bosborne@kos.net
M:6/8
L:1/8
K:Eb
G,A,|B,2 E G2 F|EFE G,A,B,|A,2 C E2 A|c3 ede|\
B2 d d c2|BcB FGA|GAG FGA|G4 G,A,|\
B,2 E G2 F|EFE G,A,B,|A,2 C E2 A|c3 ede|\
B2 d d c2|BcB DEF|EFE DEF|E4||\
K:Bb
DE|FEF BAB|dcd BAB|EDE EGB|e3 gfg|\
f2 a a g2|fgf cde|ded cde|d -d3 DE|\
FEF BAB|dcd BAB|EDE EGB|e3 gfg|\
f2 a a g2|fgf ABc|BcB ABc|B4||
